X:1
T:I Do Believe the Bible
T:I Do Believe the Bible
T:Francis Augustus Blackmer
T:Francis Augustus Blackmer, 1905
T:Public Domain Courtesy of the Cyber Hymnal™
T:Public Domain Courtesy of the Cyber Hymnal™
C:Francis Augustus Blackmer
Z:Public Domain
Z:Courtesy of the Cyber Hymnal™
%%score ( 1 2 ) ( 3 4 )
L:1/8
Q:1/4=100
M:4/4
K:G
V:1 treble 
V:2 treble 
V:3 bass 
V:4 bass 
V:1
 D | D[DG][DG][DA] [DB] [DB]2 [EB] | [Ec][Ec][EG][_EA] [DB]3 [DB] | %3
w: 1.~I|do be- lieve the Bi- ble, the|bless- èd Word of God, And|
w: 2.~It|was my par- ents’ coun- sel; to|them its truths were grand. And|
w: 3.~I|once was lost and dy- ing, in|dark- ness and de- spair, And|
w: 4.~Bold|in- fi- dels may ca- vil, and|scorn the bless- èd Book, And|
 [Dd][Dd][Dc][DB] [^CA][CE][CA][CB] | [DA]6 z D | D[DG][DG][FA] [GB] [GB]2 [GB] | %6
w: close un- to its prom- is- es I|cleave. It|points me to the path- way the|
w: mem- ory oft a pic- ture sweet doth|weave Of|that “old- fa- shioned Bi- ble that|
w: o’er my lost con- di- tion long I|grieved, Un-|til I searched the Bi- ble and|
w: with their ground- less doc- trines may de-|ceive; Still|all the while the Bi- ble brings|
 [Gc][Gc]G[GA] [GB]3 [GB] | [Gd][Gd][Fc][GB] [EA] [CE]2 [CE] | [B,D]2 [DF]2 !fermata![DG]3 || %9
w: saints and mar- tyrs trod, My|Fa- ther is its au- thor, and|I be- lieve.|
w: lay up- on the stand,” In|life, in death, it cheered them, and|I be- lieve.|
w: learned of Je- sus there, Who|sweet- ly blest and saved me when|I be- lieved.|
w: peace to those who look With|faith up- on its pag- es, and|I be- lieve.|
"^Refrain" [B,B] | [Dd]3 [B,B] [Dd]3 B | AG[EG][CE] [EG]3 [Cc] | [Ee]3 [Cc] [Ee]3 [Gc] | %13
w: ||||
w: ||||
w: ||||
w: ||||
 [Gd][Gd][Fd][GB] [FA]3 [GB] | [Gd][Gd][Gd][GB] [FA] [DG]2 [DA] | [CB][EG][^DF][EG] [CE] =D2 D | %16
w: |||
w: |||
w: |||
w: |||
 D[DG][DG][FA] [GB] !fermata![Gd]2 [Gc] | .[GB]2 .[FA]2 !fermata![DG]3 |] %18
w: ||
w: ||
w: ||
w: ||
V:2
 D | D x7 | x8 | x8 | x7 D | D x7 | x2 G x5 | x8 | x7 || x | x7 B | AG x6 | x8 | x8 | x8 | %15
 x5 D2 D | D x7 | x7 |] %18
V:3
 D, | [B,,G,][G,,B,][B,,G,][D,F,] G, G,2 [E,G,] | [C,G,][C,G,][C,G,][C,G,] [G,,G,]3 [G,,G,] | %3
w: ~|~ ~ ~ ~ ~ ~ ~|~ ~ ~ ~ ~ ~|
 [B,,G,][B,,G,][A,,G,][G,,G,] [A,,G,][A,,G,][A,,G,][A,,G,] | [D,F,]6 z [C,A,] | %5
w: ~ ~ ~ ~ ~ ~ ~ ~|~ ~|
 [B,,G,][G,,B,][B,,D][D,D] [G,D] [G,D]2 [E,E] | [C,E][C,E][C,E][C,_E] [G,,D]3 [G,D] | %7
w: ~ ~ ~ ~ ~ ~ ~|~ ~ ~ ~ ~ ~|
 [G,B,][G,B,][D,A,][E,G,] [C,G,] [C,G,]2 [C,G,] | [D,G,]2 [D,A,]2 [G,,B,]3 || [B,,B,] | %10
w: ~ ~ ~ ~ ~ ~ ~|~ ~ ~|Yes,|
 [D,D]3 [B,,B,] [D,D]3 B, | A,G,[C,G,][C,G,] [C,G,]3 [C,C] | [E,E]3 [C,C] [E,E]3 [CE] | %13
w: I be- lieve the|bless- èd Word of God, It|marks the paths His|
 [B,D][B,D][A,D][G,D] [D,D]3 [G,D] | [G,B,][G,B,][G,B,][G,D] [D,C] [G,B,]2 [B,,G,] | %15
w: peo- ple all have trod; The|sto- ry, from cre- a- tion, all|
 [C,E,][C,G,][C,G,][C,G,] [G,,C] [G,,B,]2 [C,A,] | %16
w: thro’ to “Re- ve- la- tion,” Bears|
 [B,,G,][G,,B,][B,,D][D,D] [G,D] [B,,=F]2 [A,,E] | .[D,D]2 .[D,C]2 [G,,B,]3 |] %18
w: proof of in- spir- a- tion, and|I be- lieve.|
V:4
 D, | x4 G, G,2 x | x8 | x8 | x8 | x8 | x8 | x8 | x7 || x | x7 B, | A,G, x6 | x8 | x8 | x8 | x8 | %16
 x8 | x7 |] %18

